Numix/16/status/indicator-keyboard-Uk-4.svg

<?xml version="1.0" encoding="UTF-8" standalone="no"?>
<svg
   xmlns:dc="http://purl.org/dc/elements/1.1/"
   xmlns:cc="http://creativecommons.org/ns#"
   xmlns:rdf="http://www.w3.org/1999/02/22-rdf-syntax-ns#"
   xmlns:svg="http://www.w3.org/2000/svg"
   xmlns="http://www.w3.org/2000/svg"
   xmlns:sodipodi="http://sodipodi.sourceforge.net/DTD/sodipodi-0.dtd"
   xmlns:inkscape="http://www.inkscape.org/namespaces/inkscape"
   viewBox="0 0 16 16"
   id="svg2"
   version="1.1"
   inkscape:version="0.91 r13725"
   sodipodi:docname="indicator-keyboard-Uk-4.svg">
  <metadata
     id="metadata14">
    <rdf:RDF>
      <cc:Work
         rdf:about="">
        <dc:format>image/svg+xml</dc:format>
        <dc:type
           rdf:resource="http://purl.org/dc/dcmitype/StillImage" />
      </cc:Work>
    </rdf:RDF>
  </metadata>
  <defs
     id="defs12" />
  <sodipodi:namedview
     pagecolor="#ffffff"
     bordercolor="#666666"
     borderopacity="1"
     objecttolerance="10"
     gridtolerance="10"
     guidetolerance="10"
     inkscape:pageopacity="0"
     inkscape:pageshadow="2"
     inkscape:window-width="640"
     inkscape:window-height="480"
     id="namedview10"
     showgrid="false"
     inkscape:zoom="14.75"
     inkscape:cx="8"
     inkscape:cy="8"
     inkscape:window-x="65"
     inkscape:window-y="24"
     inkscape:window-maximized="0"
     inkscape:current-layer="svg2" />
  <path
     style="fill:#ececec;fill-opacity:1"
     d="M 1.5996094 0 C 0.71320937 2.9605947e-16 0 0.71320937 0 1.5996094 L 0 14.400391 C 2.9605947e-16 15.286791 0.71320937 16 1.5996094 16 L 14.400391 16 C 15.286791 16 16 15.286791 16 14.400391 L 16 1.5996094 C 16 0.71320937 15.286791 0 14.400391 0 L 1.5996094 0 z M 8.2988281 4.1113281 L 8.2988281 8.5390625 C 8.4488281 8.3950625 8.6167344 8.2309219 8.8027344 8.0449219 C 8.9887344 7.8589219 9.1753281 7.6705156 9.3613281 7.4785156 C 9.5533281 7.2865156 9.7323906 7.0999219 9.9003906 6.9199219 C 10.068391 6.7399219 10.213984 6.5813594 10.333984 6.4433594 L 11.035156 6.4433594 C 10.897156 6.5873594 10.740406 6.7496875 10.566406 6.9296875 C 10.392406 7.1096875 10.209578 7.2980937 10.017578 7.4960938 C 9.8315782 7.6880937 9.6469375 7.8765 9.4609375 8.0625 L 8.9550781 8.5664062 C 9.1410781 8.6924062 9.3407813 8.8547344 9.5507812 9.0527344 C 9.7667813 9.2507344 9.9756876 9.4671719 10.179688 9.7011719 C 10.389687 9.9291721 10.585625 10.166109 10.765625 10.412109 C 10.951625 10.652109 11.106422 10.879703 11.232422 11.095703 L 10.539062 11.095703 C 10.395062 10.855703 10.230922 10.622531 10.044922 10.394531 C 9.8649219 10.160531 9.67275 9.9403283 9.46875 9.7363281 C 9.27075 9.5323281 9.0692344 9.3476875 8.8652344 9.1796875 C 8.6672344 9.0116875 8.4788281 8.8698594 8.2988281 8.7558594 L 8.2988281 11.095703 L 7.7148438 11.095703 L 7.7148438 4.2207031 L 8.2988281 4.1113281 z M 1.6054688 4.859375 L 2.21875 4.859375 L 2.21875 8.7011719 C 2.21875 9.0431719 2.2559844 9.34175 2.3339844 9.59375 C 2.4179844 9.83975 2.5337344 10.043078 2.6777344 10.205078 C 2.8217344 10.367078 2.9952188 10.486453 3.1992188 10.564453 C 3.4032188 10.642453 3.6308125 10.681641 3.8828125 10.681641 C 4.1348125 10.681641 4.3624062 10.642453 4.5664062 10.564453 C 4.7704062 10.486453 4.9438906 10.367078 5.0878906 10.205078 C 5.2318906 10.043078 5.343875 9.83975 5.421875 9.59375 C 5.505875 9.34175 5.546875 9.0431719 5.546875 8.7011719 L 5.546875 4.859375 L 6.1601562 4.859375 L 6.1601562 8.7832031 C 6.1601562 9.1252031 6.1172031 9.4460938 6.0332031 9.7460938 C 5.9552031 10.040094 5.8264844 10.297531 5.6464844 10.519531 C 5.4664844 10.741531 5.2295469 10.916969 4.9355469 11.042969 C 4.6475469 11.168969 4.2968125 11.230469 3.8828125 11.230469 C 3.4688125 11.230469 3.1143125 11.168969 2.8203125 11.042969 C 2.5323125 10.916969 2.2991406 10.741531 2.1191406 10.519531 C 1.9391406 10.297531 1.8066562 10.040094 1.7226562 9.7460938 C 1.6446562 9.4460938 1.6054687 9.1252031 1.6054688 8.7832031 L 1.6054688 4.859375 z M 13.494141 8.8417969 L 13.890625 8.8417969 L 13.890625 11.486328 L 14.394531 11.486328 L 14.394531 11.796875 L 13.890625 11.796875 L 13.890625 12.896484 L 13.517578 12.896484 L 13.517578 11.796875 L 11.679688 11.796875 L 11.679688 11.5625 C 11.749888 11.3753 11.847856 11.163688 11.972656 10.929688 C 12.101356 10.695687 12.244397 10.456638 12.404297 10.210938 C 12.564197 9.9652374 12.738581 9.7261874 12.925781 9.4921875 C 13.112981 9.2542875 13.303041 9.0367969 13.494141 8.8417969 z M 13.517578 9.2695312 C 13.381078 9.4099313 13.241962 9.5706063 13.101562 9.7539062 C 12.961162 9.9372063 12.825966 10.129225 12.697266 10.328125 C 12.572466 10.523125 12.454903 10.719069 12.345703 10.917969 C 12.236503 11.116869 12.146366 11.306928 12.072266 11.486328 L 13.517578 11.486328 L 13.517578 9.2695312 z "
     id="path4" />
</svg>

<svg xmlns="http://www.w3.org/2000/svg" viewBox="0 0 16 16">
 <path d="m 1.6 0 c -0.886 0 -1.6 0.713 -1.6 1.6 l 0 12.801 c 0 0.886 0.713 1.6 1.6 1.6 l 12.801 0 c 0.886 0 1.6 -0.713 1.6 -1.6 l 0 -12.801 c 0 -0.886 -0.713 -1.6 -1.6 -1.6 l -12.801 0 z m 6.699 4.111 l 0 4.428 c 0.15 -0.144 0.318 -0.308 0.504 -0.494 c 0.186 -0.186 0.373 -0.374 0.559 -0.566 c 0.192 -0.192 0.371 -0.379 0.539 -0.559 c 0.168 -0.18 0.314 -0.339 0.434 -0.477 l 0.701 0 c -0.138 0.144 -0.295 0.306 -0.469 0.486 c -0.174 0.18 -0.357 0.368 -0.549 0.566 c -0.186 0.192 -0.371 0.38 -0.557 0.566 l -0.506 0.504 c 0.186 0.126 0.386 0.288 0.596 0.486 c 0.216 0.198 0.425 0.414 0.629 0.648 c 0.21 0.228 0.406 0.465 0.586 0.711 c 0.186 0.24 0.341 0.468 0.467 0.684 l -0.693 0 c -0.144 -0.24 -0.308 -0.473 -0.494 -0.701 c -0.18 -0.234 -0.372 -0.454 -0.576 -0.658 c -0.198 -0.204 -0.4 -0.389 -0.604 -0.557 c -0.198 -0.168 -0.386 -0.31 -0.566 -0.424 l 0 2.34 l -0.584 0 l 0 -6.875 l 0.584 -0.109 z m -6.693 0.748 l 0.613 0 l 0 3.842 c 0 0.342 0.037 0.641 0.115 0.893 c 0.084 0.246 0.2 0.449 0.344 0.611 c 0.144 0.162 0.317 0.281 0.521 0.359 c 0.204 0.078 0.432 0.117 0.684 0.117 c 0.252 0 0.48 -0.039 0.684 -0.117 c 0.204 -0.078 0.377 -0.197 0.521 -0.359 c 0.144 -0.162 0.256 -0.365 0.334 -0.611 c 0.084 -0.252 0.125 -0.551 0.125 -0.893 l 0 -3.842 l 0.613 0 l 0 3.924 c 0 0.342 -0.043 0.663 -0.127 0.963 c -0.078 0.294 -0.207 0.551 -0.387 0.773 c -0.18 0.222 -0.417 0.397 -0.711 0.523 c -0.288 0.126 -0.639 0.188 -1.053 0.188 c -0.414 0 -0.769 -0.061 -1.063 -0.188 c -0.288 -0.126 -0.521 -0.301 -0.701 -0.523 c -0.18 -0.222 -0.312 -0.479 -0.396 -0.773 c -0.078 -0.3 -0.117 -0.621 -0.117 -0.963 l 0 -3.924 z m 11.889 3.982 l 0.396 0 l 0 2.645 l 0.504 0 l 0 0.311 l -0.504 0 l 0 1.1 l -0.373 0 l 0 -1.1 l -1.838 0 l 0 -0.234 c 0.07 -0.187 0.168 -0.399 0.293 -0.633 c 0.129 -0.234 0.272 -0.473 0.432 -0.719 c 0.16 -0.246 0.334 -0.485 0.521 -0.719 c 0.187 -0.238 0.377 -0.455 0.568 -0.65 z m 0.023 0.428 c -0.136 0.14 -0.276 0.301 -0.416 0.484 c -0.14 0.183 -0.276 0.375 -0.404 0.574 c -0.125 0.195 -0.242 0.391 -0.352 0.59 c -0.109 0.199 -0.199 0.389 -0.273 0.568 l 1.445 0 l 0 -2.217 z" style="fill:#ececec;fill-opacity:1"/>
</svg>
